X: 42153
T: Watchtower, The
R: reel
M: 4/4
K: Eminor
e~B3 efge|~f3e defd|e~B3 efge|baag gfed|
e~B3 efge|~f3e defd|e~B3 efge|1 fgfd e2d2:|2 fgfd efga||
~b3a gabg|~a3g fgaf|~g3f efge|f~B3 efga|
~b3a gabg|~a3g fgaf|~g3f efge|1 fgfd efga:|2 fgfd e2^d2||

